img/icons/whatsup.svg

<svg width="18" height="18" viewBox="0 0 18 18" fill="none" xmlns="http://www.w3.org/2000/svg">
<path fill-rule="evenodd" clip-rule="evenodd" d="M8.625 2.25C7.52902 2.25 5.96969 2.67515 4.67115 3.6101C3.34615 4.56409 2.25 6.08565 2.25 8.25C2.25 9.55073 2.68565 10.5368 3.12596 11.1973C3.316 11.4823 3.50705 11.7072 3.66504 11.8725L3.02239 14.4431C2.95136 14.7273 3.05223 15.0268 3.2807 15.21C3.50918 15.3933 3.82343 15.4268 4.08541 15.2958L6.79189 13.9426C8.32498 14.4562 10.4254 14.2811 12.1725 13.4784C14.0879 12.5983 15.75 10.8765 15.75 8.25C15.75 5.88217 14.5423 4.34583 13.0455 3.43703C11.586 2.55091 9.84783 2.25 8.625 2.25ZM5.22761 11.8069C5.30035 11.5159 5.19271 11.2097 4.95433 11.0283L4.95168 11.0262C4.94703 11.0224 4.93746 11.0147 4.92364 11.0028C4.89596 10.9791 4.85159 10.9394 4.79596 10.8837C4.68431 10.7721 4.52984 10.5989 4.37404 10.3652C4.06435 9.9007 3.75 9.19927 3.75 8.25C3.75 6.66435 4.52885 5.56091 5.5476 4.8274C6.59281 4.07485 7.84598 3.75 8.625 3.75C9.65217 3.75 11.1015 4.01159 12.267 4.71922C13.3952 5.40417 14.25 6.49283 14.25 8.25C14.25 10.1235 13.0996 11.4017 11.5462 12.1154C9.95658 12.8458 8.11937 12.8959 7.04544 12.4356C6.84266 12.3487 6.61191 12.3555 6.41459 12.4542L4.8731 13.2249L5.22761 11.8069ZM7.19364 5.29831C7.48974 5.16997 7.78266 5.31426 7.91189 5.53222L8.50751 6.53678C8.62792 6.73986 8.62279 7.03359 8.40179 7.23102C8.30708 7.31562 8.17599 7.41935 8.054 7.51587L8.05399 7.51588L8.05397 7.5159C7.987 7.56889 7.92278 7.61971 7.86882 7.664C8.43058 8.7077 9.22481 9.19989 9.58809 9.38113L10.0262 8.87716C10.2331 8.63922 10.5836 8.58887 10.8408 8.75214C11.0788 8.90319 11.4081 9.10663 11.7071 9.27693C11.9065 9.39051 12.042 9.62241 11.9881 9.88063C11.8913 10.3444 11.6805 10.6797 11.3922 10.9035C11.1087 11.1235 10.7793 11.2131 10.4801 11.2403C9.89174 11.2936 9.34009 11.1118 9.23944 11.0768C9.21396 11.0679 9.19291 11.0587 9.17036 11.0469C9.06319 10.9909 8.43201 10.6522 7.76368 10.1022C7.1023 9.55789 6.36454 8.77437 6.10265 7.81972C5.91028 7.11849 6.00411 6.55426 6.25277 6.12353C6.49707 5.70036 6.87249 5.43751 7.19364 5.29831Z" fill="#333333"/>
</svg>

<svg width="18" height="18" fill="none" xmlns="http://www.w3.org/2000/svg"><path fill-rule="evenodd" clip-rule="evenodd" d="M8.625 2.25c-1.096 0-2.655.425-3.954 1.36-1.325.954-2.421 2.476-2.421 4.64 0 1.3.436 2.287.876 2.947.19.285.381.51.539.676l-.643 2.57a.75.75 0 001.063.853l2.707-1.353c1.533.513 3.633.338 5.38-.465 1.916-.88 3.578-2.601 3.578-5.228 0-2.368-1.208-3.904-2.704-4.813-1.46-.886-3.198-1.187-4.421-1.187zm-3.397 9.557a.75.75 0 00-.274-.779l-.002-.002c-.005-.004-.015-.011-.028-.023a3.421 3.421 0 01-.55-.638A3.756 3.756 0 013.75 8.25c0-1.586.779-2.69 1.798-3.423C6.593 4.075 7.846 3.75 8.625 3.75c1.027 0 2.476.262 3.642.97 1.128.684 1.983 1.773 1.983 3.53 0 1.873-1.15 3.152-2.704 3.865-1.59.73-3.427.78-4.5.32a.75.75 0 00-.631.02l-1.542.77.355-1.418zm1.966-6.509a.57.57 0 01.718.234l.596 1.005a.548.548 0 01-.106.694 8.337 8.337 0 01-.348.285l-.185.148C8.43 8.708 9.225 9.2 9.589 9.381l.437-.504a.636.636 0 01.815-.125c.238.151.567.355.866.525.2.114.335.345.281.604-.097.463-.307.799-.596 1.022-.283.22-.613.31-.912.337a3.208 3.208 0 01-1.24-.163.494.494 0 01-.07-.03 8.805 8.805 0 01-1.406-.945c-.662-.544-1.4-1.328-1.661-2.282-.193-.702-.099-1.266.15-1.696.244-.424.62-.686.94-.826z" fill="#333"/></svg>
